X: 11
T: Prelude in B Major, Op. 28, No. 11
C: Frederic Chopin
%%abc-version 2.0
%%abcx-abcm2ps-target-version 5.9.1 (29 Sep 2008)
%%abc-creator hum2abc beta
%%abcx-conversion-date 2021/01/25 16:34:28
%%abc-edited-by Craig Stuart Sapp
%%abcx-initial-encoding-date 2004/12/22/
%%gracespace 0 6 6
%%humdrum-veritas 4084454590
%%humdrum-veritas-data 102762042
%%linebreak <none>
%%barnumbers 0
L: 1/8
M: 6/8
N: Derived from prelude28-11.krn
Q: "Vivace" 3/8=96
%%staves {1 2}
V: 1 clef=treble
V: 2 clef=bass
K: B
[V:1] !accent!f6 | 
[V:2] z6 | 
[V:1] ^efg f=ed | 
[V:2] z6 | 
[V:1] [Ec]F{/A}G FFd | 
[V:2] A,F,C, F,,C,F, | 
[V:1] [Ec]F{/A}G FFd | 
[V:2] A,F,C, F,,C,F, | 
[V:1] [Ec]F[DB] F[Bd]F | 
[V:2] B,,F,B,, F,D,B, | 
[V:1] [B^e][Ff][Bg] [Ff][B=e][Fd] | 
[V:2] DF,B, D,F,B,, | 
[V:1] [Ec]F{/A}G FFd | 
[V:2] A,F,C, F,,C,F, | 
[V:1] [Ec]F{/A}G FFd | 
[V:2] A,F,C, F,,C,F, | 
[V:1] [Ec]F[DB] F[Bd]F | 
[V:2] B,,F,B,, F,D,B, | 
[V:1] [Bf]F[A^^f] ^^F[Bg]G | 
[V:2] DF,C E,B,D, | 
[V:1] [db]B{/f}e dB[gb] | 
[V:2] G,,D,B, G,DB, | 
[V:1] [fa]dA {/c} BA[df] | 
[V:2] D,FA, F,DA, | 
[V:1] B4-Bc & GE{/G}F EG2 | 
[V:2] E,,B,B,, G,B,E, | 
[V:1] d6 & BDF DFG | 
[V:2] B,,^E,F, CB,G, | 
[V:1] [Ec]F{/G2A2}G FFd | 
[V:2] A,F,C, F,,C,F, | 
[V:1] [Ec]F{/G2A2}G FFd | 
[V:2] A,F,C, F,,C,F, | 
[V:1] [Ec]F[DB] F[Bd]F | 
[V:2] B,,,F,,B,, F,D,B, | 
[V:1] [B^e][Ff][Bg] [Ff][B=e][Fd] | 
[V:2] ^^CD=E D^CB, | 
[V:1] [Ec]F{/G2A2}G FFd | 
[V:2] A,zC, F,,C,F, | 
[V:1] [Ec]F{/G2A2}G FFf | 
[V:2] A,F,C, F,,C,A, | 
[V:1] {/F}f6 | 
[V:2] [B,,6F,6D6] | 
[V:1] ^efg f=ed | 
[V:2] z6 | 
[V:1] z2>^^c2de & d3^^F3 | 
[V:2] z2z[D,3A,3] | 
[V:1] dcB dcB & G3E3 | 
[V:2] [G,3B,3][F,3A,3] | 
[V:1] [D6B6] | 
[V:2] [B,,6F,6] | 
[V:1] [F,6D6F6] | 
[V:2] [B,,,3B,,3][F,,,3F,,3] | 
[V:1] [F,6B,6D6] |]  
[V:2] [B,,,6F,,6B,,6] |]  


